X:310
T: Mike Coen's Fling
S: Jack & Charlie Coen: "The Branch Line"
Z: B.Black
M: 4/4
L: 1/8
R: hornpipe
K: G
D2 | GFGB AGED | cBcd efge | B3 c dcAc |\
(3BAG AF GDB,D |
GFGB AGED | cBcd efge | B3 c dcAc |1 (3BAG AF G2 :|2\
(3BAG AF G2 D2||
(3gag df (3gag df | gbag edef | (3gag df (3gag dB |\
cdef g3 d |
(3gag df (3gag df | gbag edeg | bgaf ge d2 |\
(3efg dB AGAB ||
